X:1
T:Title
%%score 1 2 3 4
L:1/8
M:3/2
K:C
V:1 treble nm="Choir Aahs"
V:2 treble nm="Choir Aahs"
V:3 treble nm="Choir Aahs"
V:4 bass nm="Choir Aahs"
V:1
 A4 | e8 c2 B2 | A8 c4 | c8 e2 d2 | B8 B4 | B4 c4 d4 | e2 fe d4 c4 | B8 ^G4 | A4 ^G4 A4 | %9
 B8 B2 cd | e3 d c4 B2 A2 | ^G8 G2 AB | c4 e2 dc B4 | A8 ^G4 | A12 |] %15
V:2
 E4 | E8 E4 | E8 E4 | E8 F4 | E8 E4 | E8 G2 F2 | E8 E4 | E8 E4 | E8 D4 | E8 E4 | E8 F4 | E8 E4 | %12
 E8 E4 | F8 E4 | E12 |] %15
V:3
 A,4 | C2 DC B,4 A,2 G,2 | A,8 E4 | G8 F4 | E8 E4 | G8 B,4 | C2 ED[K:bass] B,4 A,4 | E8 B,4 | %8
 C2 ED B,4 A,4 | E,8 ^G,4 | A,3 B,[K:treble] C4 E2 D2 | B,8 B,4 | EFED E4[K:bass] A,2 B,C | %13
 D4 C4 B,4 | A,12 |] %15
V:4
 A,4 | A,4 E,4 E,4 | A,,8 C,4 | C,8 D,4 | E,8 E,4 | E,8 G,4 | A,4 ^G,4 A,4 | E,8 E,4 | %8
 A,4 E,4 F,4 | E,8 E,4 | A,8 D,4 | E,8 E,4 | C,8 A,,4 | D,4 E,8 | A,,12 |] %15

